img/script.svg

<svg fill="none" height="60" viewBox="0 0 112 60" width="112" xmlns="http://www.w3.org/2000/svg"><g fill="#000"><path d="m1.59226 39.903c-1.061506-1.9943-1.59226-4.3425-1.59226-7.0445 0-2.509.418169-4.7446 1.25451-6.7068.8685-1.9944 1.80134-3.5866 2.79852-4.7768 1.02934-1.2223 2.26776-2.1873 3.71527-2.895 1.47968-.7399 3.0398-1.1098 4.6803-1.1098 2.316 0 4.1656.6594 5.5488 1.9783l6.3208-5.3076c-.1287-1.1258-.193-2.2356-.193-3.3292 0-7.14107 1.8817-10.7116 5.6453-10.7116.965 0 1.7209.337753 2.2677 1.01326.5469.6755.8524 1.54401.9168 2.60552.0321 1.54401-.4664 3.08802-1.4958 4.63203-.9972 1.54401-2.4768 3.23279-4.439 5.06629.9972 6.6585 1.4957 11.1941 1.4957 13.6066 0 2.3803-.3055 4.6964-.9167 6.948-.6112 2.2196-1.544 4.2461-2.7985 6.0796s-2.9755 3.2649-5.1628 4.2943c-2.1874 1.0293-4.7285 1.544-7.6236 1.544-4.1495 0-7.28577-1.4154-9.40878-4.2461-.57901 2.0266-.86851 4.3265-.86851 6.8998 0 2.6056.67551 4.9377 2.02652 6.9963 1.38317 2.0909 3.15235 3.1363 5.30753 3.1363.16084 0 .24125.1608.24125.4825.03217.3217-.04825.4825-.24125.4825-2.54118 0-4.63203-1.2062-6.27254-3.6188-1.64051-2.3803-2.460768-5.0341-2.460768-7.9613s.41817-5.6131 1.254508-8.0578zm17.22534-19.6379c.9007 1.2224 1.351 2.6056 1.351 4.1496 0 1.5118-.2412 2.8789-.7237 4.1012-.4504 1.1902-1.2706 2.2517-2.4608 3.1846-1.158.9006-2.509 1.351-4.053 1.351-.3217 0-.579-.0804-.772-.2413-.1609-.1608-.2734-.4181-.3378-.772 1.3832 0 2.6538-.6433 3.8118-1.93 1.6727-1.8013 2.509-3.8279 2.509-6.0795 0-.9329-.1769-1.8335-.5307-2.7021-3.6027 3.0881-6.6425 6.1118-9.11934 9.0711-2.47685 2.9594-4.29428 6.176-5.45229 9.6501 1.83351 2.9593 4.71245 4.439 8.63683 4.439 2.4125 0 4.5194-.5147 6.3208-1.544 1.8335-.9972 3.2649-2.3643 4.2943-4.1013 2.0265-3.4097 3.0397-7.5431 3.0397-12.4003 0-1.1902-.2895-4.809-.8685-10.8563zm-1.93.0483c-1.0293-1.0937-2.4447-1.6405-4.246-1.6405-1.8014 0-3.42579.4342-4.8733 1.3027-2.66985 1.6084-4.58378 4.3104-5.74179 8.1061-.51467 1.6083-.772 3.2649-.772 4.9698 0 1.8978.30558 3.6509.91676 5.2593 2.21951-5.5649 7.12496-11.564 14.71633-17.9974zm9.6983-12.06259c0 .86851.0804 2.02649.2413 3.47399 3.1845-3.12016 4.7768-5.75784 4.7768-7.91302 0-1.67268-.6112-2.50902-1.8335-2.50902-2.1231 0-3.1846 2.31602-3.1846 6.94805z"/><path d="m36.5276 32.4725c0 3.7635 1.3027 5.6453 3.9083 5.6453 1.0293 0 2.1069-.4504 3.2327-1.351 1.158-.9329 2.2035-2.0426 3.1363-3.3293 2.0587-2.9594 3.5062-5.3719 4.3425-7.2376l.6273-1.351h1.3027c-.5468 1.2867-1.351 2.879-2.4125 4.7768-1.0615 1.8657-2.0747 3.4419-3.0397 4.7285-.9651 1.2867-2.107 2.4608-3.4258 3.5223-1.3189 1.0293-2.5734 1.544-3.7635 1.544-3.3454 0-5.4684-1.5279-6.3691-4.5838-.2895-.965-.4342-2.1712-.4342-3.6187 0-1.4797.4503-3.2811 1.351-5.4041 1.3188-3.1523 3.1202-5.2753 5.404-6.369.9007-.4182 1.7853-.6273 2.6538-.6273.9006 0 1.6083.2413 2.123.7238.6112.579.9167 1.2545.9167 2.0265 0 .7398-.0804 1.4314-.2412 2.0748-.1608.6433-.4986 1.2223-1.0133 1.737-.4825.4825-1.0293.7237-1.6405.7237-.2573 0-.4503-.1769-.579-.5307.2574 0 .5951-.4504 1.0133-1.351.4503-.9329.6755-1.8496.6755-2.7503s-.386-1.351-1.158-1.351c-1.6727 0-3.2006 1.3992-4.5838 4.1978-1.351 2.7985-2.0265 5.5166-2.0265 8.1543z"/><path d="m51.0681 39.324c-.9007 0-1.351-.6916-1.351-2.0747 0-.7399.9006-6.1278 2.702-16.1639.1286-.6755.4182-1.0133.8685-1.0133.579 0 1.0132.4182 1.3027 1.2545.1609.4504.2413.949.2413 1.4958 0 .5147-.0643 1.0776-.193 1.6888l-.772 3.9565h.2412c2.7664-6.4334 5.3076-9.6501 7.6236-9.6501 1.2867 0 2.1391.6273 2.5573 1.8818.1608.4825.2412 1.0454.2412 1.6888 0 .6111-.1769 1.2866-.5307 2.0265-.6112 1.2545-1.528 1.8817-2.7503 1.8817-.2573 0-.4664-.0643-.6273-.193-.1286-.1286-.209-.3056-.2412-.5307.2573 0 .5951-.4664 1.0132-1.3993.4182-.965.6595-1.8496.7238-2.6538.0643-.8041-.2091-1.2705-.8203-1.3992-1.1258 0-2.4607 1.4636-4.0047 4.3908s-2.7825 5.7257-3.7153 8.3955c-.9328 2.6699-1.4797 4.4069-1.6405 5.2111-.1609.8041-.4504 1.2062-.8685 1.2062z"/><path d="m72.4558 10.4221c.7398 0 1.1097.4986 1.1097 1.4957 0 .9972-.4825 1.8014-1.4475 2.4126-.4825.3216-.9006.4825-1.2545.4825-.5146 0-.8202-.1609-.9167-.4825l-.0483-.1448c.2895 0 .4986-.3056.6273-.9168.1286-.6433.3216-1.2705.579-1.8817.2895-.6434.7398-.965 1.351-.965zm-3.088 27.7439c.8363 0 2.0104-1.1097 3.5222-3.3293 1.5119-2.2195 2.8146-4.439 3.9083-6.6585l1.6405-3.3293h1.3028c-.193.386-.4503.9168-.772 1.5923-.2895.6433-.8846 1.8174-1.7853 3.5223-.9007 1.6726-1.7692 3.1523-2.6055 4.439-.8042 1.2867-1.7209 2.4608-2.7503 3.5223-.9971 1.0293-1.8656 1.544-2.6055 1.544-2.3803 0-3.5705-1.544-3.5705-4.6321 0-2.316.6594-6.0795 1.9783-11.2905.1286-.5469.2251-.965.2895-1.2545.0965-.2895.193-.6595.2895-1.1098.0965-.4825.193-.9168.2895-1.3028.1608-.6755.4503-1.0132.8685-1.0132.579 0 .9971.4182 1.2545 1.2545.1286.386.193.8524.193 1.3992 0 .5469-.0644 1.1259-.193 1.7371-.1287.579-.3378 1.4475-.6273 2.6055s-.5146 2.1069-.6755 2.8467c-.1608.7399-.3377 1.6406-.5307 2.7021-.3539 1.7691-.5308 3.3453-.5308 4.7285 0 1.351.3699 2.0265 1.1098 2.0265z"/><path d="m84.2526 38.0213c1.2224 0 2.5573-1.6566 4.0048-4.9698 1.4797-3.5062 2.2195-6.7068 2.2195-9.6018 0-1.9944-.5147-3.0076-1.544-3.0398-.9972 0-2.1391.8042-3.4258 2.4125-1.2545 1.6084-2.3964 3.5062-3.4257 5.6935-2.2196 4.7929-3.6027 8.3795-4.1496 10.7599-1.7048 7.72-2.8789 12.5129-3.5223 14.3786-1.1258 3.281-2.4125 4.9215-3.86 4.9215-1.1258 0-1.6887-.772-1.6887-2.316 0-.9007.193-2.0909.579-3.5705.9971-3.5706 2.5572-6.9963 4.6802-10.2774l1.3028-1.7852c.2895-1.4475.6755-3.5384 1.158-6.2726.965-5.5005 1.6566-9.1354 2.0748-10.9045.4503-1.8014.965-3.0237 1.544-3.6671.6112-.6755 1.1258-1.0132 1.544-1.0132.8042 0 1.0937.3217.8685.965-.8042 2.6377-1.6405 5.7579-2.509 9.3606h.3377c3.1524-6.8516 5.9992-10.2774 8.5403-10.2774 2.0587 0 3.3454 1.3189 3.8601 3.9566.1608.8363.2412 1.6887.2412 2.5572 0 2.123-.4825 4.423-1.4475 6.8998-1.351 3.5384-3.1523 5.774-5.404 6.7068-.6755.2895-1.351.4343-2.0265.4343-1.5762 0-2.493-.8685-2.7503-2.6055-.0322-.2895.0322-.5147.193-.6755.1608-.1609.3538-.2091.579-.1448s.3538.2252.386.4825c.1608 1.0615.7077 1.5923 1.6405 1.5923zm-13.8478 19.2518c1.2545 0 2.7985-4.8572 4.632-14.5716-1.8978 2.9594-3.4258 6.2404-4.5838 9.8431-.5147 1.6084-.772 2.7985-.772 3.5705s.2413 1.158.7238 1.158z"/><path d="m96.5696 18.2386c0-.3538.2252-.5307.6756-.5307h2.509c.1608-.6434.3698-1.4475.6268-2.4125l.676-2.5091c.193-.7398.354-1.4153.482-2.0265.161-.6111.451-.91673.869-.91673.547 0 .933.41813 1.158 1.25453.096.3538.145.7881.145 1.3027 0 .5147-.097 1.1741-.29 1.9783l-.917 3.3293h2.992c.289 0 .482.0965.579.2895.129.193.129.386 0 .579-.097.1608-.29.2412-.579.2412h-3.281c-1.994 7.4949-2.9916 12.8025-2.9916 15.9226 0 2.2839.5147 3.4258 1.5436 3.4258.837 0 2.011-1.1097 3.523-3.3293 1.512-2.2195 2.814-4.439 3.908-6.6585l1.64-3.3293h1.303c-.193.386-.45.9168-.772 1.5923-.289.6433-.884 1.8174-1.785 3.5223-.901 1.6726-1.769 3.1523-2.606 4.439-.804 1.2867-1.72 2.4608-2.75 3.5223-.997 1.0293-1.93 1.544-2.798 1.544-.8688 0-1.6247-.2734-2.2681-.8203-.6112-.579-.9972-1.3832-1.158-2.4125-.193-1.0615-.2895-2.1391-.2895-3.2328 0-2.5412.9007-7.2697 2.702-14.1856h-2.1712c-.2574 0-.4343-.0643-.5308-.193-.0965-.1608-.1448-.2895-.1448-.386z"/></g></svg>

<svg width="112" height="60" viewBox="0 0 112 60" fill="none" xmlns="http://www.w3.org/2000/svg">
<path d="M1.59226 39.903C0.530754 37.9087 0 35.5605 0 32.8585C0 30.3495 0.418169 28.1139 1.25451 26.1517C2.12301 24.1573 3.05585 22.5651 4.05303 21.3749C5.08237 20.1526 6.32079 19.1876 7.7683 18.4799C9.24798 17.74 10.8081 17.3701 12.4486 17.3701C14.7646 17.3701 16.6142 18.0295 17.9974 19.3484L24.3182 14.0408C24.1895 12.915 24.1252 11.8052 24.1252 10.7116C24.1252 3.57053 26.0069 0 29.7705 0C30.7355 0 31.4914 0.337753 32.0382 1.01326C32.5851 1.68876 32.8906 2.55727 32.955 3.61878C32.9871 5.16279 32.4886 6.7068 31.4592 8.25081C30.462 9.79482 28.9824 11.4836 27.0202 13.3171C28.0174 19.9756 28.5159 24.5112 28.5159 26.9237C28.5159 29.304 28.2104 31.6201 27.5992 33.8717C26.988 36.0913 26.0552 38.1178 24.8007 39.9513C23.5462 41.7848 21.8252 43.2162 19.6379 44.2456C17.4505 45.2749 14.9094 45.7896 12.0143 45.7896C7.8648 45.7896 4.72853 44.3742 2.60552 41.5435C2.02651 43.5701 1.73701 45.87 1.73701 48.4433C1.73701 51.0489 2.41252 53.381 3.76353 55.4396C5.1467 57.5305 6.91588 58.5759 9.07106 58.5759C9.2319 58.5759 9.31231 58.7367 9.31231 59.0584C9.34448 59.3801 9.26406 59.5409 9.07106 59.5409C6.52988 59.5409 4.43903 58.3347 2.79852 55.9221C1.15801 53.5418 0.337752 50.888 0.337752 47.9608C0.337752 45.0336 0.755922 42.3477 1.59226 39.903ZM18.8176 20.2651C19.7183 21.4875 20.1686 22.8707 20.1686 24.4147C20.1686 25.9265 19.9274 27.2936 19.4449 28.5159C18.9945 29.7061 18.1743 30.7676 16.9841 31.7005C15.8261 32.6011 14.4751 33.0515 12.9311 33.0515C12.6094 33.0515 12.3521 32.9711 12.1591 32.8102C11.9982 32.6494 11.8857 32.3921 11.8213 32.0382C13.2045 32.0382 14.4751 31.3949 15.6331 30.1082C17.3058 28.3069 18.1421 26.2803 18.1421 24.0287C18.1421 23.0958 17.9652 22.1952 17.6114 21.3266C14.0087 24.4147 10.9689 27.4384 8.49206 30.3977C6.01521 33.3571 4.19778 36.5737 3.03977 40.0478C4.87328 43.0071 7.75222 44.4868 11.6766 44.4868C14.0891 44.4868 16.196 43.9721 17.9974 42.9428C19.8309 41.9456 21.2623 40.5785 22.2917 38.8415C24.3182 35.4318 25.3314 31.2984 25.3314 26.4412C25.3314 25.251 25.0419 21.6322 24.4629 15.5849L18.8176 20.2651ZM16.8876 20.3134C15.8583 19.2197 14.4429 18.6729 12.6416 18.6729C10.8402 18.6729 9.21581 19.1071 7.7683 19.9756C5.09845 21.584 3.18452 24.286 2.02651 28.0817C1.51184 29.69 1.25451 31.3466 1.25451 33.0515C1.25451 34.9493 1.56009 36.7024 2.17127 38.3108C4.39078 32.7459 9.29623 26.7468 16.8876 20.3134ZM26.5859 8.25081C26.5859 9.11932 26.6663 10.2773 26.8272 11.7248C30.0117 8.60464 31.604 5.96696 31.604 3.81178C31.604 2.1391 30.9928 1.30276 29.7705 1.30276C27.6474 1.30276 26.5859 3.61878 26.5859 8.25081Z" fill="black"/>
<path d="M36.5276 32.4725C36.5276 36.236 37.8303 38.1178 40.4359 38.1178C41.4652 38.1178 42.5428 37.6674 43.6686 36.7668C44.8266 35.8339 45.8721 34.7242 46.8049 33.4375C48.8636 30.4781 50.3111 28.0656 51.1474 26.1999L51.7747 24.8489H53.0774C52.5306 26.1356 51.7264 27.7279 50.6649 29.6257C49.6034 31.4914 48.5902 33.0676 47.6252 34.3542C46.6601 35.6409 45.5182 36.815 44.1994 37.8765C42.8805 38.9058 41.626 39.4205 40.4359 39.4205C37.0905 39.4205 34.9675 37.8926 34.0668 34.8367C33.7773 33.8717 33.6326 32.6655 33.6326 31.218C33.6326 29.7383 34.0829 27.9369 34.9836 25.8139C36.3024 22.6616 38.1038 20.5386 40.3876 19.4449C41.2883 19.0267 42.1729 18.8176 43.0414 18.8176C43.942 18.8176 44.6497 19.0589 45.1644 19.5414C45.7756 20.1204 46.0811 20.7959 46.0811 21.5679C46.0811 22.3077 46.0007 22.9993 45.8399 23.6427C45.6791 24.286 45.3413 24.865 44.8266 25.3797C44.3441 25.8622 43.7973 26.1034 43.1861 26.1034C42.9288 26.1034 42.7358 25.9265 42.6071 25.5727C42.8645 25.5727 43.2022 25.1223 43.6204 24.2217C44.0707 23.2888 44.2959 22.3721 44.2959 21.4714C44.2959 20.5707 43.9099 20.1204 43.1379 20.1204C41.4652 20.1204 39.9373 21.5196 38.5541 24.3182C37.2031 27.1167 36.5276 29.8348 36.5276 32.4725Z" fill="black"/>
<path d="M51.0681 39.324C50.1674 39.324 49.7171 38.6324 49.7171 37.2493C49.7171 36.5094 50.6177 31.1215 52.4191 21.0854C52.5477 20.4099 52.8373 20.0721 53.2876 20.0721C53.8666 20.0721 54.3008 20.4903 54.5903 21.3266C54.7512 21.777 54.8316 22.2756 54.8316 22.8224C54.8316 23.3371 54.7673 23.9 54.6386 24.5112L53.8666 28.4677H54.1078C56.8742 22.0343 59.4154 18.8176 61.7314 18.8176C63.0181 18.8176 63.8705 19.4449 64.2887 20.6994C64.4495 21.1819 64.5299 21.7448 64.5299 22.3882C64.5299 22.9993 64.353 23.6748 63.9992 24.4147C63.388 25.6692 62.4712 26.2964 61.2489 26.2964C60.9916 26.2964 60.7825 26.2321 60.6216 26.1034C60.493 25.9748 60.4126 25.7978 60.3804 25.5727C60.6377 25.5727 60.9755 25.1063 61.3936 24.1734C61.8118 23.2084 62.0531 22.3238 62.1174 21.5196C62.1817 20.7155 61.9083 20.2491 61.2971 20.1204C60.1713 20.1204 58.8364 21.584 57.2924 24.5112C55.7484 27.4384 54.5099 30.2369 53.5771 32.9067C52.6443 35.5766 52.0974 37.3136 51.9366 38.1178C51.7757 38.9219 51.4862 39.324 51.0681 39.324Z" fill="black"/>
<path d="M72.4558 10.4221C73.1956 10.4221 73.5655 10.9207 73.5655 11.9178C73.5655 12.915 73.083 13.7192 72.118 14.3304C71.6355 14.652 71.2174 14.8129 70.8635 14.8129C70.3489 14.8129 70.0433 14.652 69.9468 14.3304L69.8985 14.1856C70.188 14.1856 70.3971 13.88 70.5258 13.2688C70.6544 12.6255 70.8474 11.9983 71.1048 11.3871C71.3943 10.7437 71.8446 10.4221 72.4558 10.4221ZM69.3678 38.166C70.2041 38.166 71.3782 37.0563 72.89 34.8367C74.4019 32.6172 75.7046 30.3977 76.7983 28.1782L78.4388 24.8489H79.7416C79.5486 25.2349 79.2913 25.7657 78.9696 26.4412C78.6801 27.0845 78.085 28.2586 77.1843 29.9635C76.2836 31.6361 75.4151 33.1158 74.5788 34.4025C73.7746 35.6892 72.8579 36.8633 71.8285 37.9248C70.8314 38.9541 69.9629 39.4688 69.223 39.4688C66.8427 39.4688 65.6525 37.9248 65.6525 34.8367C65.6525 32.5207 66.3119 28.7572 67.6308 23.5462C67.7594 22.9993 67.8559 22.5812 67.9203 22.2917C68.0168 22.0022 68.1133 21.6322 68.2098 21.1819C68.3063 20.6994 68.4028 20.2651 68.4993 19.8791C68.6601 19.2036 68.9496 18.8659 69.3678 18.8659C69.9468 18.8659 70.3649 19.2841 70.6223 20.1204C70.7509 20.5064 70.8153 20.9728 70.8153 21.5196C70.8153 22.0665 70.7509 22.6455 70.6223 23.2567C70.4936 23.8357 70.2845 24.7042 69.995 25.8622C69.7055 27.0202 69.4804 27.9691 69.3195 28.7089C69.1587 29.4488 68.9818 30.3495 68.7888 31.411C68.4349 33.1801 68.258 34.7563 68.258 36.1395C68.258 37.4905 68.6279 38.166 69.3678 38.166Z" fill="black"/>
<path d="M84.2526 38.0213C85.475 38.0213 86.8099 36.3647 88.2574 33.0515C89.7371 29.5453 90.4769 26.3447 90.4769 23.4497C90.4769 21.4553 89.9622 20.4421 88.9329 20.4099C87.9357 20.4099 86.7938 21.2141 85.5071 22.8224C84.2526 24.4308 83.1107 26.3286 82.0814 28.5159C79.8618 33.3088 78.4787 36.8954 77.9318 39.2758C76.227 46.9958 75.0529 51.7887 74.4095 53.6544C73.2837 56.9354 71.997 58.5759 70.5495 58.5759C69.4237 58.5759 68.8608 57.8039 68.8608 56.2599C68.8608 55.3592 69.0538 54.169 69.4398 52.6894C70.4369 49.1188 71.997 45.6931 74.12 42.412L75.4228 40.6268C75.7123 39.1793 76.0983 37.0884 76.5808 34.3542C77.5458 28.8537 78.2374 25.2188 78.6556 23.4497C79.1059 21.6483 79.6206 20.426 80.1996 19.7826C80.8108 19.1071 81.3254 18.7694 81.7436 18.7694C82.5478 18.7694 82.8373 19.0911 82.6121 19.7344C81.8079 22.3721 80.9716 25.4923 80.1031 29.095H80.4408C83.5932 22.2434 86.44 18.8176 88.9811 18.8176C91.0398 18.8176 92.3265 20.1365 92.8412 22.7742C93.002 23.6105 93.0824 24.4629 93.0824 25.3314C93.0824 27.4544 92.5999 29.7544 91.6349 32.2312C90.2839 35.7696 88.4826 38.0052 86.2309 38.938C85.5554 39.2275 84.8799 39.3723 84.2044 39.3723C82.6282 39.3723 81.7114 38.5038 81.4541 36.7668C81.4219 36.4773 81.4863 36.2521 81.6471 36.0913C81.8079 35.9304 82.0009 35.8822 82.2261 35.9465C82.4513 36.0108 82.5799 36.1717 82.6121 36.429C82.7729 37.4905 83.3198 38.0213 84.2526 38.0213ZM70.4048 57.2731C71.6593 57.2731 73.2033 52.4159 75.0368 42.7015C73.139 45.6609 71.611 48.9419 70.453 52.5446C69.9383 54.153 69.681 55.3431 69.681 56.1151C69.681 56.8871 69.9223 57.2731 70.4048 57.2731Z" fill="black"/>
<path d="M96.5696 18.2386C96.5696 17.8848 96.7948 17.7079 97.2452 17.7079H99.7542C99.915 17.0645 100.124 16.2604 100.381 15.2954L101.057 12.7863C101.25 12.0465 101.411 11.371 101.539 10.7598C101.7 10.1487 101.99 9.84307 102.408 9.84307C102.955 9.84307 103.341 10.2612 103.566 11.0976C103.662 11.4514 103.711 11.8857 103.711 12.4003C103.711 12.915 103.614 13.5744 103.421 14.3786L102.504 17.7079H105.496C105.785 17.7079 105.978 17.8044 106.075 17.9974C106.204 18.1904 106.204 18.3834 106.075 18.5764C105.978 18.7372 105.785 18.8176 105.496 18.8176H102.215C100.221 26.3125 99.2234 31.6201 99.2234 34.7402C99.2234 37.0241 99.7381 38.166 100.767 38.166C101.604 38.166 102.778 37.0563 104.29 34.8367C105.802 32.6172 107.104 30.3977 108.198 28.1782L109.838 24.8489H111.141C110.948 25.2349 110.691 25.7657 110.369 26.4412C110.08 27.0845 109.485 28.2586 108.584 29.9635C107.683 31.6361 106.815 33.1158 105.978 34.4025C105.174 35.6892 104.258 36.8633 103.228 37.9248C102.231 38.9541 101.298 39.4688 100.43 39.4688C99.5612 39.4688 98.8053 39.1954 98.1619 38.6485C97.5507 38.0695 97.1647 37.2653 97.0039 36.236C96.8109 35.1745 96.7144 34.0969 96.7144 33.0032C96.7144 30.462 97.6151 25.7335 99.4164 18.8176H97.2452C96.9878 18.8176 96.8109 18.7533 96.7144 18.6246C96.6179 18.4638 96.5696 18.3351 96.5696 18.2386Z" fill="black"/>
</svg>
